X: 305538
M: 2/4
L: 1/16
K: C
c2 |\
|: g2 |\
e2^c2A2c2 | (d^cdc d2).f2 | d2B2G2B2 | (=cBcB c2).e2 |\
(fgfg a2).g2 | (efef g2).e2 | d2fd c2B2 | c6 :|


